src/atoms/Icons/svgs/instagram.svg

<?xml version="1.0" encoding="UTF-8"?>
<svg width="16px" height="16px" viewBox="0 0 16 16" version="1.1" xmlns="http://www.w3.org/2000/svg" xmlns:xlink="http://www.w3.org/1999/xlink">
    <title>instagram</title>
    <g id="Icons" stroke="none" stroke-width="1" fill="none" fill-rule="evenodd">
        <g id="Artboard" transform="translate(-230.000000, -100.000000)" fill="#000000" fill-rule="nonzero">
            <g id="instagram" transform="translate(230.000000, 100.000000)">
                <path d="M14.15,6.77 L12.76,6.77 C13.2813434,8.76403669 12.504546,10.8716825 10.8138325,12.0504399 C9.12311897,13.2291973 6.87688103,13.2291973 5.1861675,12.0504399 C3.49545398,10.8716825 2.71865662,8.76403669 3.24,6.77 L1.84,6.77 L1.84,13.54 C1.84,13.88 2.12,14.16 2.47,14.16 L13.54,14.16 C13.88,14.16 14.16,13.88 14.16,13.54 L14.16,6.77 L14.15,6.77 Z M14.15,2.47 C14.1526803,2.30384002 14.0885443,2.14355936 13.97198,2.02511496 C13.8554156,1.90667055 13.6961816,1.83999999 13.53,1.83999999 L11.69,1.83999999 C11.3475835,1.83999999 11.07,2.11758346 11.07,2.46 L11.07,4.31 C11.07,4.65 11.35,4.93 11.69,4.93 L13.54,4.93 C13.88,4.93 14.16,4.65 14.16,4.31 L14.16,2.46 L14.15,2.47 Z M8,4.91 C6.29896297,4.91 4.92,6.28896297 4.92,7.99 C4.92,9.69103703 6.29896297,11.07 8,11.07 C9.70103703,11.07 11.08,9.69103703 11.08,7.99 C11.08,6.28896297 9.70103703,4.91 8,4.91 Z M14.15,16 L1.85,16 C0.828273213,16 0,15.1717268 0,14.15 L0,1.85 C0,0.83 0.83,0 1.85,0 L14.15,0 C15.17,0 16,0.83 16,1.85 L16,14.15 C16,15.17 15.17,16 14.15,16 Z" id="Shape"></path>
            </g>
        </g>
    </g>
</svg>

<svg xmlns="http://www.w3.org/2000/svg" width="16" height="16" viewBox="0 0 16 16"><path d="M14.15,6.77H12.76a4.92,4.92,0,1,1-9.52,0H1.84v6.77a.63.63,0,0,0,.63.62H13.54a.62.62,0,0,0,.62-.62V6.77Zm0-4.3A.59.59,0,0,0,14,2a.6.6,0,0,0-.44-.19H11.69a.62.62,0,0,0-.62.62V4.31a.62.62,0,0,0,.62.62h1.85a.62.62,0,0,0,.62-.62V2.46ZM8,4.91A3.08,3.08,0,1,0,11.08,8,3.08,3.08,0,0,0,8,4.91ZM14.15,16H1.85A1.85,1.85,0,0,1,0,14.15V1.85A1.85,1.85,0,0,1,1.85,0h12.3A1.85,1.85,0,0,1,16,1.85v12.3A1.85,1.85,0,0,1,14.15,16Z"/></svg>
